static/logos/people.ai-wordmark-color.svg

<svg width="100" height="23" viewBox="0 0 100 23" fill="none" xmlns="http://www.w3.org/2000/svg">
<g clip-path="url(#clip0_1_1706)">
<path d="M92.826 5.2381V5.26429C91.826 4.55276 90.6493 4.13026 89.425 4.0431C88.2007 3.95591 86.9762 4.20741 85.8853 4.77005C84.7945 5.33267 83.8798 6.18471 83.241 7.23281C82.6024 8.28088 82.2645 9.48455 82.2645 10.7119C82.2645 11.9393 82.6024 13.143 83.241 14.191C83.8798 15.2391 84.7945 16.0911 85.8853 16.6538C86.9762 17.2164 88.2007 17.4679 89.425 17.3807C90.6493 17.2935 91.826 16.871 92.826 16.1595V17.3976H95.6379V3.19286L92.826 5.2381ZM88.9522 14.5905C88.191 14.5917 87.446 14.369 86.8103 13.9503C86.1743 13.5316 85.6757 12.9352 85.3762 12.2353C85.0764 11.5354 84.9893 10.7629 85.1252 10.0138C85.2612 9.26474 85.6143 8.57212 86.1407 8.02212C86.6669 7.47212 87.3433 7.08895 88.086 6.92031C88.8283 6.75167 89.6038 6.80495 90.3162 7.07355C91.0286 7.34214 91.6462 7.81419 92.0924 8.43102C92.5386 9.04786 92.7938 9.78224 92.826 10.5429V10.8643C92.7867 11.8655 92.3614 12.8126 91.6393 13.5072C90.9172 14.2018 89.9541 14.59 88.9522 14.5905ZM81.4855 17.3952V13.3524L75.9141 17.3952H81.4855ZM99.8783 0.128581L97.0569 2.17144V4.99762L99.876 2.94762L99.8783 0.128581ZM97.0569 6.75714L97.0522 17.3952H99.8641L99.876 4.70714L97.0569 6.75714Z" fill="#0068E5"/>
<path d="M36.3143 4.02381C34.9921 4.02381 33.6998 4.41581 32.6005 5.15024C31.501 5.88467 30.644 6.92855 30.1379 8.14993C29.6317 9.37131 29.499 10.7153 29.7567 12.0121C30.0143 13.3089 30.6505 14.5002 31.585 15.4354C32.5195 16.3706 33.7105 17.0077 35.0071 17.2662C36.3036 17.5247 37.6479 17.393 38.8695 16.8877C40.0912 16.3824 41.1357 15.5262 41.871 14.4274C42.6062 13.3285 42.999 12.0364 43 10.7143C43.0007 9.83591 42.8281 8.96602 42.4924 8.15431C42.1567 7.34262 41.6643 6.60502 41.0436 5.98369C40.4226 5.36238 39.6852 4.86948 38.8738 4.53319C38.0624 4.19691 37.1926 4.02381 36.3143 4.02381ZM36.3143 14.5905C35.5457 14.591 34.7945 14.3634 34.1555 13.9367C33.5164 13.51 33.0183 12.9032 32.7243 12.1932C32.43 11.4833 32.3533 10.702 32.5033 9.94838C32.6536 9.19474 33.024 8.5026 33.5676 7.95955C34.1114 7.4165 34.804 7.04698 35.5579 6.89774C36.3117 6.74852 37.0929 6.82631 37.8024 7.12124C38.5119 7.41619 39.1181 7.91505 39.544 8.55464C39.97 9.19424 40.1967 9.94583 40.1952 10.7143C40.1933 11.7426 39.7838 12.7281 39.0562 13.4548C38.3286 14.1814 37.3426 14.5899 36.3143 14.5905ZM21.5286 4.02381C20.3656 4.02471 19.2229 4.32898 18.2135 4.90655C17.204 5.48414 16.3627 6.31505 15.7726 7.31722C15.1825 8.31938 14.864 9.45817 14.8486 10.621C14.8332 11.784 15.1215 12.9308 15.6848 13.9482C16.2482 14.9656 17.0673 15.8185 18.0611 16.4226C19.0549 17.0267 20.1891 17.3611 21.3516 17.3928C22.5142 17.4245 23.6649 17.1523 24.6902 16.6032C25.7155 16.0542 26.5798 15.2472 27.1976 14.2619L24.7619 12.8571C24.369 13.4495 23.8207 13.9224 23.1773 14.2243C22.5337 14.5262 21.8196 14.6455 21.113 14.569C20.4062 14.4926 19.7341 14.2235 19.17 13.791C18.606 13.3585 18.1715 12.7793 17.9143 12.1167H28.069C28.2798 11.1414 28.2695 10.1313 28.039 9.16048C27.8086 8.18967 27.3636 7.28281 26.7367 6.50645C26.1098 5.7301 25.3171 5.10393 24.4167 4.67391C23.5164 4.24391 22.5311 4.02095 21.5333 4.02143L21.5286 4.02381ZM21.5286 6.82619C22.3113 6.82681 23.0755 7.06405 23.721 7.50681C24.3664 7.94957 24.8629 8.57714 25.1452 9.30714H17.9143C17.9524 9.20398 17.9952 9.10398 18.0429 9.00714C18.3613 8.35364 18.8569 7.80271 19.4731 7.41712C20.0894 7.03152 20.8016 6.82679 21.5286 6.82619ZM6.74286 4.02381C5.3359 4.02169 3.96455 4.46602 2.82619 5.29286L1.75238 4.47619C1.65242 4.40229 1.53146 4.36224 1.40714 4.36191H0.0142857L0 22.2381H2.8119V16.1262C3.66586 16.744 4.65376 17.1512 5.69505 17.3145C6.73633 17.4778 7.80145 17.3926 8.80355 17.0659C9.80562 16.7391 10.7162 16.18 11.4611 15.4343C12.206 14.6886 12.764 13.7773 13.0896 12.7749C13.4152 11.7724 13.4992 10.7072 13.3347 9.6661C13.1702 8.62502 12.7619 7.63757 12.143 6.78433C11.5242 5.9311 10.7125 5.23626 9.77398 4.75652C8.83548 4.27676 7.79686 4.02571 6.74286 4.02381ZM6.74286 14.5905C5.9744 14.591 5.22307 14.3634 4.584 13.9367C3.94493 13.51 3.44683 12.9032 3.15274 12.1932C2.85867 11.4833 2.78186 10.702 2.932 9.94838C3.08214 9.19474 3.45252 8.5026 3.99624 7.95955C4.53995 7.4165 5.23255 7.04698 5.98638 6.89774C6.74021 6.74852 7.52138 6.82631 8.23098 7.12124C8.94057 7.41619 9.54671 7.91505 9.97267 8.55464C10.3986 9.19424 10.6252 9.94583 10.6238 10.7143C10.6225 11.7428 10.2131 12.7287 9.48543 13.4555C8.75774 14.1823 7.77133 14.5905 6.74286 14.5905ZM51.1262 4.02381C49.7274 4.02124 48.3633 4.46036 47.2286 5.27857L46.1643 4.47619C46.0645 4.40198 45.9433 4.36191 45.819 4.36191H44.4262L44.4119 22.2381H47.2262V16.1476C48.0824 16.7599 49.071 17.1614 50.1114 17.3194C51.1519 17.4775 52.2152 17.3876 53.2145 17.0572C54.2138 16.7267 55.121 16.165 55.8621 15.4178C56.6033 14.6705 57.1576 13.7588 57.48 12.7569C57.8021 11.7549 57.8833 10.691 57.7169 9.65179C57.5505 8.61255 57.141 7.62729 56.5217 6.77622C55.9024 5.92512 55.091 5.23224 54.1536 4.75398C53.216 4.27569 52.1788 4.02552 51.1262 4.02381ZM51.1262 14.5905C50.3574 14.5924 49.6055 14.366 48.9655 13.9402C48.3255 13.5143 47.8262 12.908 47.531 12.1982C47.2357 11.4884 47.1581 10.7069 47.3074 9.95279C47.4567 9.19867 47.8264 8.50583 48.37 7.96207C48.9133 7.41831 49.606 7.04807 50.36 6.89829C51.114 6.74848 51.8955 6.82583 52.6055 7.12057C53.3155 7.41531 53.9221 7.91414 54.3483 8.55391C54.7745 9.19367 55.0014 9.94555 55 10.7143C54.9988 11.7415 54.5902 12.7264 53.864 13.453C53.1381 14.1795 52.1533 14.5886 51.1262 14.5905ZM76.6881 12.1143C77.0438 10.4881 76.7817 8.78769 75.9529 7.34412C75.1238 5.90055 73.7871 4.81714 72.2033 4.30481C70.6195 3.79248 68.9017 3.88791 67.3843 4.57248C65.8669 5.25707 64.6586 6.48183 63.9945 8.00833C63.3305 9.53483 63.2583 11.2538 63.7919 12.8306C64.3257 14.4074 65.4269 15.7292 66.8817 16.5386C68.3362 17.348 70.04 17.5871 71.6614 17.2094C73.2826 16.8317 74.7052 15.8642 75.6524 14.4952L73.3833 12.8571C72.9905 13.4495 72.4424 13.9225 71.7988 14.2243C71.1555 14.5261 70.4412 14.6452 69.7348 14.5685C69.0281 14.4918 68.3562 14.2223 67.7924 13.7895C67.2286 13.3566 66.7948 12.7771 66.5381 12.1143H76.6881ZM70.1524 6.82619C70.935 6.82681 71.6993 7.06405 72.3448 7.50681C72.9902 7.94957 73.4867 8.57714 73.769 9.30714H66.5381C66.5762 9.20398 66.619 9.10398 66.6667 9.00714C66.985 8.35364 67.4807 7.80271 68.0969 7.41712C68.7133 7.03152 69.4255 6.82679 70.1524 6.82619ZM59.2333 0.128581H62.0476V17.3952H59.2333V0.128581Z" fill="#00204E"/>
</g>
<defs>
<clipPath id="clip0_1_1706">
<rect width="100" height="22.381" fill="white"/>
</clipPath>
</defs>
</svg>

<svg xmlns="http://www.w3.org/2000/svg" width="278.261" height="64" fill="none" viewBox="0 0 100 23"><g clip-path="url(#a)"><path fill="#0068E5" d="M92.826 5.238v.026a6.685 6.685 0 1 0 0 10.896v1.238h2.812V3.193l-2.812 2.045Zm-3.874 9.352a3.883 3.883 0 1 1 3.874-4.047v.321a3.878 3.878 0 0 1-3.874 3.726Zm-7.466 2.805v-4.043l-5.572 4.043h5.572ZM99.877.13 97.057 2.17v2.827l2.819-2.05.002-2.82Zm-2.821 6.628-.005 10.638h2.812l.012-12.688-2.82 2.05Z"/><path fill="#00204E" d="M36.314 4.024a6.685 6.685 0 1 0 0 13.37 6.685 6.685 0 0 0 0-13.37Zm0 10.567a3.883 3.883 0 1 1-.005-7.766 3.883 3.883 0 0 1 .005 7.766ZM21.53 4.024a6.686 6.686 0 1 0 5.669 10.238l-2.436-1.405a3.878 3.878 0 0 1-6.848-.74H28.07a6.684 6.684 0 0 0-6.536-8.096l-.004.003Zm0 2.802a3.881 3.881 0 0 1 3.616 2.481h-7.23c.037-.103.08-.203.128-.3a3.881 3.881 0 0 1 3.486-2.18ZM6.743 4.024a6.648 6.648 0 0 0-3.917 1.269l-1.074-.817a.583.583 0 0 0-.345-.114H.014L0 22.238h2.812v-6.112a6.686 6.686 0 1 0 3.93-12.102Zm0 10.567a3.883 3.883 0 1 1-.005-7.767 3.883 3.883 0 0 1 .005 7.767ZM51.126 4.024a6.643 6.643 0 0 0-3.897 1.255l-1.065-.803a.579.579 0 0 0-.345-.114h-1.393l-.014 17.876h2.814v-6.09a6.686 6.686 0 1 0 3.9-12.124Zm0 10.567a3.883 3.883 0 1 1-.019-7.767 3.883 3.883 0 0 1 .02 7.767Zm25.562-2.477a6.704 6.704 0 0 0-9.304-7.542 6.703 6.703 0 1 0 8.268 9.923l-2.269-1.638a3.875 3.875 0 0 1-6.845-.743h10.15Zm-6.536-5.288a3.882 3.882 0 0 1 3.617 2.481h-7.23c.037-.103.08-.203.128-.3a3.88 3.88 0 0 1 3.485-2.18ZM59.233.13h2.815v17.266h-2.815V.13Z"/></g><defs><clipPath id="a"><path fill="#fff" d="M0 0h100v22.381H0z"/></clipPath></defs></svg>
